assets/search.svg

<svg width="18" height="18" viewBox="0 0 18 18" fill="none" xmlns="http://www.w3.org/2000/svg">
<path fill-rule="evenodd" clip-rule="evenodd" d="M12.5006 11.0006H11.7106L11.4306 10.7306C12.6306 9.33063 13.2506 7.42063 12.9106 5.39063C12.4406 2.61063 10.1206 0.390626 7.32063 0.0506256C3.09063 -0.469374 -0.469374 3.09063 0.0506256 7.32063C0.390626 10.1206 2.61063 12.4406 5.39063 12.9106C7.42063 13.2506 9.33063 12.6306 10.7306 11.4306L11.0006 11.7106V12.5006L15.2606 16.7506C15.6706 17.1606 16.3306 17.1606 16.7406 16.7506L16.7506 16.7406C17.1606 16.3306 17.1606 15.6706 16.7506 15.2606L12.5006 11.0006ZM6.50063 11.0006C4.01063 11.0006 2.00063 8.99063 2.00063 6.50063C2.00063 4.01063 4.01063 2.00063 6.50063 2.00063C8.99063 2.00063 11.0006 4.01063 11.0006 6.50063C11.0006 8.99063 8.99063 11.0006 6.50063 11.0006Z" fill="white"/>
</svg>

<svg width="18" height="18" fill="none" xmlns="http://www.w3.org/2000/svg"><path fill-rule="evenodd" clip-rule="evenodd" d="M12.5 11h-.79l-.28-.27a6.5 6.5 0 0 0 1.48-5.34c-.47-2.78-2.79-5-5.59-5.34A6.505 6.505 0 0 0 .05 7.32c.34 2.8 2.56 5.12 5.34 5.59a6.5 6.5 0 0 0 5.34-1.48l.27.28v.79l4.26 4.25c.41.41 1.07.41 1.48 0l.01-.01c.41-.41.41-1.07 0-1.48L12.5 11Zm-6 0C4.01 11 2 8.99 2 6.5S4.01 2 6.5 2 11 4.01 11 6.5 8.99 11 6.5 11Z" fill="#fff"/></svg>
